X:104
T:Garoio an Irish Air. JJo.104
T:Garryowen,aka. JJo.104
S:J.Jones MS,1801,N.Shrops.
A:N Shropshire
Z:Neil Brookes
M:6/8
L:1/8
Q:3/8=110
K:G
g/f/|edc BAG|B>cB B2g/f/|edc BAG|A>BAA2 g/f/|!
edc BAG|B>cB B2d|def g2B|ABA A2::!
B/c/|d2Bd2B|d2Bd2f|e2ce2c|e2ce2f|!
g2ab2a|g2ed2c|def g2B|A>BAA2:|

